static/images/instagram.svg

<svg height="30" viewBox="0 0 30 30" width="30" xmlns="http://www.w3.org/2000/svg"><circle cx="15" cy="15" fill="#520993" r="15"/><g fill="#fff"><path d="m12.958 0h-7.458a5.5 5.5 0 0 0 -5.5 5.5v7.46a5.5 5.5 0 0 0 5.5 5.5h7.46a5.5 5.5 0 0 0 5.5-5.5v-7.46a5.5 5.5 0 0 0 -5.502-5.5zm3.642 12.958a3.642 3.642 0 0 1 -3.642 3.642h-7.458a3.642 3.642 0 0 1 -3.642-3.642v-7.458a3.642 3.642 0 0 1 3.642-3.643h7.46a3.642 3.642 0 0 1 3.64 3.643v7.46z" transform="translate(5.862 5.442)"/><path d="m138.178 133a5.178 5.178 0 1 0 5.178 5.178 5.184 5.184 0 0 0 -5.178-5.178zm0 8.342a3.164 3.164 0 1 1 3.164-3.164 3.164 3.164 0 0 1 -3.164 3.164z" transform="translate(-123.094 -123.484)"/><ellipse cx="19.995" cy="9.825" rx="1.241" ry="1.241"/></g></svg>

<svg id="Group_8" data-name="Group 8" xmlns="http://www.w3.org/2000/svg" width="30" height="30" viewBox="0 0 30 30">
  <circle id="Oval-1-Copy-6" cx="15" cy="15" r="15" transform="translate(0 0)" fill="#520993"/>
  <path id="XMLID_17_" d="M12.958,0H5.5A5.5,5.5,0,0,0,0,5.5v7.46a5.5,5.5,0,0,0,5.5,5.5h7.46a5.5,5.5,0,0,0,5.5-5.5V5.5A5.5,5.5,0,0,0,12.958,0ZM16.6,12.958A3.642,3.642,0,0,1,12.958,16.6H5.5a3.642,3.642,0,0,1-3.642-3.642V5.5A3.642,3.642,0,0,1,5.5,1.857h7.46A3.642,3.642,0,0,1,16.6,5.5v7.46Z" transform="translate(5.862 5.442)" fill="#fff"/>
  <path id="XMLID_81_" d="M138.178,133a5.178,5.178,0,1,0,5.178,5.178A5.184,5.184,0,0,0,138.178,133Zm0,8.342a3.164,3.164,0,1,1,3.164-3.164A3.164,3.164,0,0,1,138.178,141.342Z" transform="translate(-123.094 -123.484)" fill="#fff"/>
  <ellipse id="XMLID_83_" cx="1.241" cy="1.241" rx="1.241" ry="1.241" transform="translate(18.754 8.584)" fill="#fff"/>
</svg>
